x-pack/solutions/observability/plugins/observability_onboarding/public/icons/apache.svg

<svg width="25" height="24" viewBox="0 0 25 24" fill="none" xmlns="http://www.w3.org/2000/svg">
<g id="Apache" clip-path="url(#clip0_2818_20591)">
<g id="Group">
<path id="Vector" d="M17.219 0.13558C16.8454 0.355035 16.2197 0.985385 15.4727 1.89589V1.95192L16.1264 3.16126L16.159 3.18461C16.64 2.49823 17.1256 1.87721 17.6205 1.34959C17.6579 1.30756 17.6765 1.28889 17.6765 1.28889C17.6579 1.30756 17.6392 1.33091 17.6205 1.34959C17.4618 1.52702 16.9762 2.08733 16.2478 3.20795L16.3318 3.22663C16.3318 3.22663 18.0361 3.05854 18.8579 2.91846L18.9046 2.87644C19.166 1.41029 18.6478 0.737914 18.6478 0.737914C18.6478 0.737914 17.9941 -0.317339 17.219 0.13558Z" fill="url(#paint0_linear_2818_20591)"/>
<path id="Vector_2" d="M14.1427 6.52314C14.3528 6.13559 14.5629 5.75271 14.773 5.38384C14.9925 5.00096 15.2166 4.62742 15.4454 4.26789C15.4594 4.24921 15.4734 4.22587 15.4828 4.20252C15.7069 3.84766 15.931 3.51147 16.1598 3.18462L15.4734 1.89124C15.4221 1.95194 15.3707 2.01731 15.3193 2.08268C15.1232 2.33015 14.9178 2.59162 14.7077 2.87178C14.4695 3.18929 14.2267 3.52548 13.9793 3.88034C13.7505 4.20719 13.517 4.55271 13.2882 4.90291C13.0921 5.20641 12.8913 5.51458 12.6952 5.83676C12.6859 5.85077 12.6812 5.86011 12.6719 5.87411V5.92548L13.5263 7.62042L13.5637 7.63443C13.7551 7.26089 13.9466 6.88734 14.1427 6.52314Z" fill="url(#paint1_linear_2818_20591)"/>
<path id="Vector_3" d="M10.421 14.8204C10.5751 14.4189 10.7386 14.0126 10.902 13.6017C11.0607 13.2095 11.2195 12.8126 11.3876 12.4157C11.551 12.0189 11.7238 11.622 11.8965 11.2204C12.074 10.8142 12.2514 10.408 12.4335 10.0064C12.6156 9.60952 12.7977 9.21264 12.9845 8.82042C13.0498 8.68034 13.1199 8.53559 13.1899 8.39552C13.3066 8.15271 13.428 7.90991 13.5448 7.67178C13.5494 7.65777 13.5588 7.64843 13.5635 7.63443L12.6716 5.87411C12.6576 5.89746 12.6436 5.92081 12.6296 5.94415C12.4242 6.28501 12.214 6.63054 12.0133 6.9854C11.8078 7.34493 11.607 7.70913 11.4109 8.07801C11.2428 8.39085 11.0841 8.70369 10.9253 9.0212C10.8926 9.08657 10.8646 9.14727 10.8319 9.21264C10.6358 9.61419 10.4631 9.99707 10.3043 10.3706C10.1269 10.7908 9.96812 11.1924 9.82805 11.5753C9.73466 11.8274 9.65528 12.0656 9.57591 12.299C9.5152 12.4951 9.4545 12.6959 9.39847 12.892C9.26306 13.3589 9.151 13.8212 9.05762 14.2881L9.07162 14.3442L9.9261 16.0438L9.95412 16.0578C10.0708 15.7403 10.1922 15.4228 10.3183 15.0959C10.351 15.0025 10.3884 14.9138 10.421 14.8204Z" fill="url(#paint2_linear_2818_20591)"/>
<path id="Vector_4" d="M9.04816 14.3488C8.93609 14.9138 8.85672 15.4788 8.81469 16.0391C8.81469 16.0578 8.81003 16.0764 8.81003 16.0998C8.52987 15.6515 7.78279 15.2173 7.78279 15.2173C8.31975 15.9924 8.72598 16.7628 8.78668 17.5192C8.50185 17.5799 8.10964 17.4912 7.65205 17.3278C8.12364 17.762 8.47851 17.8834 8.61859 17.9161C8.18434 17.9441 7.73143 18.243 7.27384 18.5838C7.94154 18.313 8.47851 18.2056 8.86606 18.2897C8.25438 20.022 7.64271 21.9364 7.02637 23.9628C7.21314 23.9068 7.3252 23.7807 7.39057 23.608C7.49796 23.2391 8.22637 20.8298 9.361 17.6593C9.39368 17.5706 9.42637 17.4772 9.45905 17.3885C9.46839 17.3652 9.47773 17.3371 9.48707 17.3138C9.60847 16.9823 9.72987 16.6414 9.86061 16.2959C9.88862 16.2165 9.92131 16.1371 9.94932 16.0578V16.0531L9.0575 14.2881C9.0575 14.3115 9.05283 14.3301 9.04816 14.3488Z" fill="url(#paint3_linear_2818_20591)"/>
<path id="Vector_5" d="M16.2483 3.21262C16.0475 3.52079 15.8281 3.87099 15.5899 4.26787C15.5759 4.28655 15.5666 4.3099 15.5526 4.32857C15.3471 4.6741 15.1323 5.04764 14.9036 5.4632C14.7074 5.81807 14.502 6.20095 14.2872 6.61651C14.1004 6.97605 13.909 7.35426 13.7129 7.76048L13.7549 7.77916L15.9261 7.54569L15.9775 7.50834C16.6358 7.20484 16.93 6.92935 17.2148 6.53246C17.2895 6.42507 17.3689 6.30834 17.4436 6.19161C17.6771 5.82741 17.9059 5.43052 18.1067 5.03363C18.3028 4.65075 18.4755 4.26787 18.6109 3.92702C18.695 3.70756 18.765 3.50678 18.8117 3.32935C18.8537 3.1706 18.8864 3.02118 18.9098 2.8811C18.032 3.03519 16.9534 3.17994 16.2483 3.21262Z" fill="url(#paint4_linear_2818_20591)"/>
<path id="Vector_6" d="M13.6282 7.94258C13.5535 8.10133 13.4741 8.26476 13.3948 8.42818C13.3107 8.60561 13.222 8.79238 13.1379 8.97916C13.0959 9.07254 13.0492 9.17059 13.0072 9.26398C12.8718 9.55347 12.7411 9.85231 12.601 10.1605C12.4329 10.5387 12.2601 10.9356 12.0874 11.3418C11.9193 11.734 11.7512 12.1356 11.5831 12.5558C11.4197 12.9527 11.2562 13.3636 11.0928 13.7838C10.9434 14.162 10.794 14.5449 10.6446 14.9465C10.6352 14.9651 10.6305 14.9838 10.6212 15.0025C10.4718 15.3994 10.3261 15.8031 10.172 16.2187C10.1673 16.228 10.159 16.2523 10.1543 16.2617L10.1865 16.2688L10.836 16.199L10.8727 16.1838C10.8587 16.1792 10.85 16.1605 10.836 16.1558C11.6951 16.0484 12.8391 15.4041 13.5815 14.6103C13.9224 14.2461 14.2305 13.8118 14.52 13.3076C14.7348 12.9293 14.9309 12.5138 15.1224 12.0515C15.2905 11.65 15.4492 11.2111 15.6033 10.7395C15.4072 10.8422 15.1784 10.9216 14.9309 10.9729C14.8889 10.9823 14.8422 10.9916 14.7955 11.0009C14.7488 11.0103 14.7021 11.015 14.6601 11.0243C15.4632 10.7161 15.9675 10.1185 16.3364 9.39005C16.1263 9.5348 15.7807 9.72157 15.3698 9.81495C15.3138 9.82896 15.2578 9.8383 15.1971 9.84764C15.1831 9.84764 15.1691 9.85231 15.1551 9.85231C15.4352 9.73557 15.6687 9.60484 15.8741 9.45075C15.9162 9.41807 15.9582 9.38538 16.0002 9.34803C16.0609 9.292 16.1216 9.23596 16.1776 9.17993C16.215 9.14258 16.2477 9.10522 16.285 9.0632C16.3644 8.96982 16.4391 8.86709 16.5091 8.75503C16.5325 8.72235 16.5512 8.68499 16.5745 8.65231C16.6025 8.60094 16.6259 8.54958 16.6492 8.49822C16.7613 8.2741 16.85 8.07332 16.92 7.89589C16.9574 7.80717 16.9854 7.72779 17.0134 7.64842C17.0228 7.6204 17.0321 7.58772 17.0461 7.5597C17.0741 7.47565 17.0975 7.40094 17.1162 7.33091C17.1442 7.23285 17.1582 7.15347 17.1675 7.09744C17.1395 7.12079 17.1115 7.13947 17.0741 7.16281C16.8313 7.30756 16.4158 7.4383 16.0796 7.499L16.7426 7.42429L16.0796 7.499C16.0329 7.50834 16.0002 7.51301 15.9628 7.52235C15.966 7.51923 15.2171 7.59841 13.7163 7.75988C13.707 7.76922 13.6516 7.88655 13.6282 7.94258Z" fill="url(#paint5_linear_2818_20591)"/>
<path id="Vector_7" d="M10.0843 16.436C9.96757 16.7581 9.84617 17.0897 9.72944 17.4258C9.72944 17.4305 9.72477 17.4352 9.72477 17.4399C9.70609 17.4865 9.69208 17.5332 9.67341 17.5846C9.59403 17.8134 9.52399 18.0142 9.36523 18.4811C9.62671 18.6025 9.83683 18.9153 10.0376 19.2749C10.0189 18.906 9.86485 18.5558 9.57068 18.2897C10.8641 18.3457 11.98 18.0188 12.5543 17.0756C12.6057 16.9916 12.6524 16.9029 12.6944 16.8095C12.4329 17.141 12.1061 17.2811 11.4991 17.2484H11.4944H11.4991C12.4003 16.8469 12.8485 16.4593 13.2501 15.8196C13.3434 15.6655 13.4368 15.5021 13.5302 15.32C12.7411 16.1278 11.8306 16.3566 10.8734 16.1838L10.1543 16.2632C10.131 16.3146 10.1076 16.3753 10.0843 16.436Z" fill="url(#paint6_linear_2818_20591)"/>
</g>
</g>
<defs>
<linearGradient id="paint0_linear_2818_20591" x1="16.2405" y1="2.07014" x2="20.3515" y2="0.432102" gradientUnits="userSpaceOnUse">
<stop stop-color="#F69923"/>
<stop offset="0.3123" stop-color="#F79A23"/>
<stop offset="0.8383" stop-color="#E97826"/>
</linearGradient>
<linearGradient id="paint1_linear_2818_20591" x1="5.08034" y1="12.064" x2="16.6478" y2="8.68921" gradientUnits="userSpaceOnUse">
<stop offset="0.3233" stop-color="#9E2064"/>
<stop offset="0.6302" stop-color="#C92037"/>
<stop offset="0.7514" stop-color="#CD2335"/>
<stop offset="1" stop-color="#E97826"/>
</linearGradient>
<linearGradient id="paint2_linear_2818_20591" x1="5.45097" y1="13.3666" x2="15.928" y2="12.5055" gradientUnits="userSpaceOnUse">
<stop offset="0.3233" stop-color="#9E2064"/>
<stop offset="0.6302" stop-color="#C92037"/>
<stop offset="0.7514" stop-color="#CD2335"/>
<stop offset="1" stop-color="#E97826"/>
</linearGradient>
<linearGradient id="paint3_linear_2818_20591" x1="6.491" y1="19.367" x2="11.8663" y2="19.271" gradientUnits="userSpaceOnUse">
<stop stop-color="#282662"/>
<stop offset="0.09548" stop-color="#662E8D"/>
<stop offset="0.7882" stop-color="#9F2064"/>
<stop offset="0.9487" stop-color="#CD2032"/>
</linearGradient>
<linearGradient id="paint4_linear_2818_20591" x1="8.01185" y1="25.5941" x2="16.1797" y2="3.39516" gradientUnits="userSpaceOnUse">
<stop offset="0.3233" stop-color="#9E2064"/>
<stop offset="0.6302" stop-color="#C92037"/>
<stop offset="0.7514" stop-color="#CD2335"/>
<stop offset="1" stop-color="#E97826"/>
</linearGradient>
<linearGradient id="paint5_linear_2818_20591" x1="7.70809" y1="19.0681" x2="20.4477" y2="9.71738" gradientUnits="userSpaceOnUse">
<stop offset="0.3233" stop-color="#9E2064"/>
<stop offset="0.6302" stop-color="#C92037"/>
<stop offset="0.7514" stop-color="#CD2335"/>
<stop offset="1" stop-color="#E97826"/>
</linearGradient>
<linearGradient id="paint6_linear_2818_20591" x1="8.79576" y1="22.9357" x2="13.8029" y2="9.72698" gradientUnits="userSpaceOnUse">
<stop stop-color="#282662"/>
<stop offset="0.09548" stop-color="#662E8D"/>
<stop offset="0.7882" stop-color="#9F2064"/>
<stop offset="0.9487" stop-color="#CD2032"/>
</linearGradient>
<clipPath id="clip0_2818_20591">
<rect width="24" height="24" fill="white" transform="translate(0.998047 0.000183105)"/>
</clipPath>
</defs>
</svg>

<svg xmlns="http://www.w3.org/2000/svg" width="25" height="24" fill="none"><g clip-path="url(#a)"><path fill="url(#b)" d="M17.219.136c-.374.219-1 .85-1.746 1.76v.056l.653 1.21.033.023c.481-.687.967-1.308 1.462-1.835q.056-.062.056-.061c-.02.019-.038.042-.056.06-.16.178-.645.738-1.373 1.859l.084.019s1.704-.168 2.526-.309l.047-.042c.261-1.466-.257-2.138-.257-2.138s-.654-1.055-1.429-.602"/><path fill="url(#c)" d="M14.143 6.523c.21-.387.42-.77.63-1.14q.33-.575.672-1.115a.3.3 0 0 0 .038-.065q.335-.53.677-1.018l-.687-1.294q-.076.092-.154.192-.295.37-.611.789a38.831 38.831 0 0 0-1.42 2.031c-.196.303-.397.612-.593.934-.01.014-.014.023-.023.037v.051l.854 1.695.038.014c.191-.373.383-.747.579-1.11"/><path fill="url(#d)" d="M10.421 14.82c.154-.401.318-.807.481-1.218.159-.393.318-.79.486-1.186.163-.397.336-.794.508-1.196q.265-.61.537-1.214.273-.595.552-1.186c.065-.14.135-.284.205-.424q.178-.366.355-.724c.004-.014.014-.024.018-.038l-.891-1.76-.042.07c-.206.341-.416.687-.617 1.041a41 41 0 0 0-1.088 2.036l-.093.192c-.196.401-.369.784-.528 1.158q-.266.63-.476 1.204c-.093.252-.173.49-.252.724-.06.196-.122.397-.178.593q-.201.699-.34 1.396l.014.056.854 1.7.028.014c.117-.318.238-.635.364-.962.033-.094.07-.182.103-.276"/><path fill="url(#e)" d="M9.048 14.349q-.169.849-.233 1.69c0 .019-.005.037-.005.06-.28-.447-1.027-.882-1.027-.882.537.775.943 1.546 1.004 2.302-.285.06-.677-.028-1.135-.191.472.434.827.555.967.588-.435.028-.888.327-1.345.668.668-.271 1.205-.378 1.592-.294a137 137 0 0 0-1.84 5.673.54.54 0 0 0 .365-.355c.107-.369.835-2.778 1.97-5.949l.098-.27.028-.075q.18-.5.374-1.018c.028-.08.06-.159.088-.238v-.005l-.892-1.765q0 .034-.009.06"/><path fill="url(#f)" d="M16.248 3.213q-.3.46-.658 1.055c-.014.019-.023.042-.037.06a46.655 46.655 0 0 0-1.265 2.288c-.188.36-.379.738-.575 1.144l.042.02 2.171-.234.051-.038c.659-.303.953-.579 1.238-.976.075-.107.154-.224.229-.34.233-.365.462-.761.663-1.158.196-.383.369-.766.504-1.107a4.946 4.946 0 0 0 .299-1.046c-.878.154-1.957.299-2.662.332"/><path fill="url(#g)" d="m13.628 7.943-.233.485c-.084.178-.173.364-.257.551-.042.094-.089.192-.13.285-.136.29-.267.588-.407.897a80 80 0 0 0-1.018 2.395q-.245.597-.49 1.228c-.15.378-.299.76-.448 1.162-.01.02-.014.038-.024.056-.15.397-.295.801-.449 1.217-.005.009-.013.033-.018.043l.033.007.649-.07.037-.015c-.014-.005-.023-.024-.037-.028.86-.108 2.003-.752 2.746-1.546.34-.364.648-.798.938-1.302.215-.379.41-.794.602-1.256q.251-.604.481-1.312a2.6 2.6 0 0 1-.672.233q-.065.015-.135.028c-.047.01-.094.014-.136.023.803-.308 1.307-.905 1.676-1.634a2.9 2.9 0 0 1-1.139.458q-.021.002-.042.004c.28-.116.514-.247.72-.401a2.4 2.4 0 0 0 .303-.271q.053-.055.107-.117.12-.14.224-.308c.023-.033.042-.07.066-.103q.04-.076.074-.154.167-.336.271-.602c.037-.089.065-.168.093-.248.01-.028.02-.06.033-.088a4 4 0 0 0 .07-.23c.028-.097.042-.177.052-.233a1 1 0 0 1-.094.066c-.243.145-.658.275-.994.336l.663-.075-.663.075c-.047.01-.08.014-.117.023q.004-.005-2.247.238c-.009.01-.064.127-.088.183"/><path fill="url(#h)" d="M10.084 16.436c-.116.322-.238.654-.355.99q-.002.008-.004.014c-.019.046-.033.093-.052.145-.079.228-.149.43-.308.896.262.121.472.434.673.794a1.4 1.4 0 0 0-.467-.985c1.293.056 2.409-.271 2.983-1.214q.078-.126.14-.267c-.261.332-.588.472-1.195.44h-.005.005c.901-.402 1.35-.79 1.751-1.43.093-.154.187-.317.28-.499-.789.808-1.7 1.037-2.657.864l-.719.08a3 3 0 0 0-.07.172"/></g><defs><linearGradient id="b" x1="16.241" x2="20.352" y1="2.07" y2=".432" gradientUnits="userSpaceOnUse"><stop stop-color="#F69923"/><stop offset=".312" stop-color="#F79A23"/><stop offset=".838" stop-color="#E97826"/></linearGradient><linearGradient id="c" x1="5.08" x2="16.648" y1="12.064" y2="8.689" gradientUnits="userSpaceOnUse"><stop offset=".323" stop-color="#9E2064"/><stop offset=".63" stop-color="#C92037"/><stop offset=".751" stop-color="#CD2335"/><stop offset="1" stop-color="#E97826"/></linearGradient><linearGradient id="d" x1="5.451" x2="15.928" y1="13.367" y2="12.505" gradientUnits="userSpaceOnUse"><stop offset=".323" stop-color="#9E2064"/><stop offset=".63" stop-color="#C92037"/><stop offset=".751" stop-color="#CD2335"/><stop offset="1" stop-color="#E97826"/></linearGradient><linearGradient id="e" x1="6.491" x2="11.866" y1="19.367" y2="19.271" gradientUnits="userSpaceOnUse"><stop stop-color="#282662"/><stop offset=".095" stop-color="#662E8D"/><stop offset=".788" stop-color="#9F2064"/><stop offset=".949" stop-color="#CD2032"/></linearGradient><linearGradient id="f" x1="8.012" x2="16.18" y1="25.594" y2="3.395" gradientUnits="userSpaceOnUse"><stop offset=".323" stop-color="#9E2064"/><stop offset=".63" stop-color="#C92037"/><stop offset=".751" stop-color="#CD2335"/><stop offset="1" stop-color="#E97826"/></linearGradient><linearGradient id="g" x1="7.708" x2="20.448" y1="19.068" y2="9.717" gradientUnits="userSpaceOnUse"><stop offset=".323" stop-color="#9E2064"/><stop offset=".63" stop-color="#C92037"/><stop offset=".751" stop-color="#CD2335"/><stop offset="1" stop-color="#E97826"/></linearGradient><linearGradient id="h" x1="8.796" x2="13.803" y1="22.936" y2="9.727" gradientUnits="userSpaceOnUse"><stop stop-color="#282662"/><stop offset=".095" stop-color="#662E8D"/><stop offset=".788" stop-color="#9F2064"/><stop offset=".949" stop-color="#CD2032"/></linearGradient><clipPath id="a"><path fill="#fff" d="M.998 0h24v24h-24z"/></clipPath></defs></svg>
